pistes-carto/pics/drag_lift.svg

<?xml version="1.0" encoding="UTF-8" standalone="no"?>
<!-- Created with Inkscape (http://www.inkscape.org/) -->

<svg
   xmlns:dc="http://purl.org/dc/elements/1.1/"
   xmlns:cc="http://creativecommons.org/ns#"
   xmlns:rdf="http://www.w3.org/1999/02/22-rdf-syntax-ns#"
   xmlns:svg="http://www.w3.org/2000/svg"
   xmlns="http://www.w3.org/2000/svg"
   xmlns:sodipodi="http://sodipodi.sourceforge.net/DTD/sodipodi-0.dtd"
   xmlns:inkscape="http://www.inkscape.org/namespaces/inkscape"
   sodipodi:docname="drag_lift.svg"
   inkscape:version="0.48.3.1 r9886"
   version="1.1"
   id="svg2998"
   height="180"
   width="180"
   inkscape:export-filename="/home/yves/KIMSUFI/www.git/mapnik-styles/offset-style/drag_lift.png"
   inkscape:export-xdpi="8"
   inkscape:export-ydpi="8">
  <defs
     id="defs3000" />
  <sodipodi:namedview
     id="base"
     pagecolor="#ffffff"
     bordercolor="#666666"
     borderopacity="1.0"
     inkscape:pageopacity="0.0"
     inkscape:pageshadow="2"
     inkscape:zoom="4.1"
     inkscape:cx="50.38475"
     inkscape:cy="87.858581"
     inkscape:document-units="px"
     inkscape:current-layer="layer1"
     showgrid="false"
     inkscape:window-width="1871"
     inkscape:window-height="1056"
     inkscape:window-x="49"
     inkscape:window-y="24"
     inkscape:window-maximized="1"
     inkscape:snap-bbox="true"
     inkscape:snap-nodes="false"
     inkscape:snap-bbox-midpoints="false"
     inkscape:snap-object-midpoints="true"
     inkscape:snap-center="true"
     inkscape:snap-grids="true"
     inkscape:snap-to-guides="false">
    <inkscape:grid
       type="xygrid"
       id="grid3006"
       empspacing="5"
       visible="true"
       enabled="true"
       snapvisiblegridlinesonly="true" />
  </sodipodi:namedview>
  <metadata
     id="metadata3003">
    <rdf:RDF>
      <cc:Work
         rdf:about="">
        <dc:format>image/svg+xml</dc:format>
        <dc:type
           rdf:resource="http://purl.org/dc/dcmitype/StillImage" />
        <dc:title></dc:title>
        <cc:license
           rdf:resource="http://creativecommons.org/publicdomain/zero/1.0/" />
      </cc:Work>
      <cc:License
         rdf:about="http://creativecommons.org/publicdomain/zero/1.0/">
        <cc:permits
           rdf:resource="http://creativecommons.org/ns#Reproduction" />
        <cc:permits
           rdf:resource="http://creativecommons.org/ns#Distribution" />
        <cc:permits
           rdf:resource="http://creativecommons.org/ns#DerivativeWorks" />
      </cc:License>
    </rdf:RDF>
  </metadata>
  <g
     inkscape:label="Layer 1"
     inkscape:groupmode="layer"
     id="layer1"
     transform="translate(0,-872.36218)">
    <g
       id="g5004-1"
       style="stroke-width:20;stroke-miterlimit:4;stroke-dasharray:none;stroke:none;stroke-opacity:1">
      <path
         inkscape:connector-curvature="0"
         id="path4991-3"
         transform="translate(0,872.36218)"
         d="m 35,40 c -5.522847,0 -10,4.477153 -10,10 0,0.567478 0.06544,1.114575 0.15625,1.65625 1.591997,9.927989 3.305145,20.018372 4.96875,30 l 0.03125,0 c 0.486169,2.917966 2.218656,5.393883 4.65625,6.875 l -0.03125,0.03125 0.4375,0.21875 28.71875,15.3125 c 0.776843,0.42201 1.619293,0.71894 2.53125,0.84375 L 75.09375,141 c 0.466231,2.27842 2.490004,4 4.90625,4 2.761424,0 5,-2.23858 5,-5 0,-0.40041 -0.0361,-0.78306 -0.125,-1.15625 L 75,97.59375 c 3.75e-4,-0.03093 0,-0.06273 0,-0.09375 0,-2.862553 -1.610792,-5.361003 -3.96875,-6.625 L 49.96875,79.6875 C 49.95472,79.231734 49.8852,78.782199 49.8125,78.34375 l 0.0625,0 L 45.15625,50 90,50 c 2.761424,0 5,-2.238576 5,-5 0,-2.761424 -2.238576,-5 -5,-5 l -55,0 z"
         style="font-size:medium;font-style:normal;font-variant:normal;font-weight:normal;font-stretch:normal;text-indent:0;text-align:start;text-decoration:none;line-height:normal;letter-spacing:normal;word-spacing:normal;text-transform:none;direction:ltr;block-progression:tb;writing-mode:lr-tb;text-anchor:start;baseline-shift:baseline;color:#000000;fill:#000000;fill-opacity:1;stroke:none;stroke-width:20;marker:none;visibility:visible;display:inline;overflow:visible;enable-background:accumulate;font-family:Sans;-inkscape-font-specification:Sans;stroke-miterlimit:4;stroke-dasharray:none;stroke-opacity:1" />
      <path
         id="path4786-3"
         style="fill:#000000;fill-opacity:1;fill-rule:nonzero;stroke:none;stroke-width:20;stroke-miterlimit:4;stroke-dasharray:none;stroke-opacity:1"
         d="M 32.48109,907.36218 C 39.383511,907.36218 45,901.74569 45,894.84327 45,887.94084 39.383511,882.36218 32.48109,882.36218 25.578668,882.36218 20,887.94084 20,894.84327 c 0,6.90242 5.578668,12.51891 12.48109,12.51891"
         inkscape:connector-curvature="0" />
      <path
         id="path5182-7"
         style="fill:#000000;fill-opacity:1;fill-rule:nonzero;stroke:none;stroke-width:20;stroke-miterlimit:4;stroke-dasharray:none;stroke-opacity:1"
         d="m 151.83,1001.8219 c 6.25521,-2.04996 9.63226,-8.75557 7.55998,-15.00138 l -4.52831,1.45607 c 1.22801,3.75516 -0.82508,7.77851 -4.5475,9.02383 l -119.213604,40.55938 1.53502,4.5024 L 151.83,1001.8219 z"
         inkscape:connector-curvature="0" />
    </g>
    <path
       style="fill:#000000;fill-opacity:1;stroke:none"
       d="m 114.5122,882.36218 10.4878,0 -64.5122,75 -10.4878,0 z"
       id="rect3786"
       inkscape:connector-curvature="0"
       sodipodi:nodetypes="ccccc" />
    <g
       id="g5004"
       style="stroke:none">
      <path
         id="path4991"
         transform="translate(0,872.36218)"
         d="M 35 40 C 29.477153 40 25 44.477153 25 50 C 25 50.567478 25.06544 51.114575 25.15625 51.65625 C 26.748247 61.584239 28.461395 71.674622 30.125 81.65625 L 30.15625 81.65625 C 30.642419 84.574216 32.374906 87.050133 34.8125 88.53125 L 34.78125 88.5625 L 35.21875 88.78125 L 63.9375 104.09375 C 64.714343 104.51576 65.556793 104.81269 66.46875 104.9375 L 75.09375 141 C 75.559981 143.27842 77.583754 145 80 145 C 82.761424 145 85 142.76142 85 140 C 85 139.59959 84.963902 139.21694 84.875 138.84375 L 75 97.59375 C 75.000375 97.562823 75 97.531016 75 97.5 C 75 94.637447 73.389208 92.138997 71.03125 90.875 L 49.96875 79.6875 C 49.95472 79.231734 49.885205 78.782199 49.8125 78.34375 L 49.875 78.34375 L 45.15625 50 L 90 50 C 92.761424 50 95 47.761424 95 45 C 95 42.238576 92.761424 40 90 40 L 35 40 z "
         style="font-size:medium;font-style:normal;font-variant:normal;font-weight:normal;font-stretch:normal;text-indent:0;text-align:start;text-decoration:none;line-height:normal;letter-spacing:normal;word-spacing:normal;text-transform:none;direction:ltr;block-progression:tb;writing-mode:lr-tb;text-anchor:start;baseline-shift:baseline;color:#000000;fill:#000000;fill-opacity:1;stroke:none;stroke-width:10;marker:none;visibility:visible;display:inline;overflow:visible;enable-background:accumulate;font-family:Sans;-inkscape-font-specification:Sans" />
      <path
         id="path4786"
         style="fill:#000000;fill-opacity:1;fill-rule:nonzero;stroke:none"
         d="M 32.48109,907.36218 C 39.383511,907.36218 45,901.74569 45,894.84327 45,887.94084 39.383511,882.36218 32.48109,882.36218 25.578668,882.36218 20,887.94084 20,894.84327 c 0,6.90242 5.578668,12.51891 12.48109,12.51891"
         inkscape:connector-curvature="0" />
      <path
         id="path5182"
         style="fill:#000000;fill-opacity:1;fill-rule:nonzero;stroke:none"
         d="m 151.83,1001.8219 c 6.25521,-2.04996 9.63226,-8.75557 7.55998,-15.00138 l -4.52831,1.45607 c 1.22801,3.75516 -0.82508,7.77851 -4.5475,9.02383 l -119.213604,40.55938 1.53502,4.5024 L 151.83,1001.8219 z"
         inkscape:connector-curvature="0" />
    </g>
  </g>
</svg>

<?xml version="1.0" encoding="UTF-8"?>
<!-- Created with Inkscape (http://www.inkscape.org/) -->
<svg id="svg2998" width="180" height="180" version="1.1" xmlns="http://www.w3.org/2000/svg" xmlns:cc="http://creativecommons.org/ns#" xmlns:dc="http://purl.org/dc/elements/1.1/" xmlns:rdf="http://www.w3.org/1999/02/22-rdf-syntax-ns#">
 <metadata id="metadata3003">
  <rdf:RDF>
   <cc:Work rdf:about="">
    <dc:format>image/svg+xml</dc:format>
    <dc:type rdf:resource="http://purl.org/dc/dcmitype/StillImage"/>
    <dc:title/>
    <cc:license rdf:resource="http://creativecommons.org/publicdomain/zero/1.0/"/>
   </cc:Work>
   <cc:License rdf:about="http://creativecommons.org/publicdomain/zero/1.0/">
    <cc:permits rdf:resource="http://creativecommons.org/ns#Reproduction"/>
    <cc:permits rdf:resource="http://creativecommons.org/ns#Distribution"/>
    <cc:permits rdf:resource="http://creativecommons.org/ns#DerivativeWorks"/>
   </cc:License>
  </rdf:RDF>
 </metadata>
 <g id="layer1" transform="translate(0 -872.36)">
  <g id="g5004-1">
   <path id="path4991-3" transform="translate(0 872.36)" d="m35 40c-5.5228 0-10 4.4772-10 10 0 0.56748 0.06544 1.1146 0.15625 1.6562 1.592 9.928 3.3051 20.018 4.9688 30h0.03125c0.48617 2.918 2.2187 5.3939 4.6562 6.875l-0.03125 0.03125 0.4375 0.21875 28.719 15.312c0.77684 0.42201 1.6193 0.71894 2.5312 0.84375l8.625 36.062c0.46623 2.2784 2.49 4 4.9062 4 2.7614 0 5-2.2386 5-5 0-0.40041-0.0361-0.78306-0.125-1.1562l-9.875-41.25c3.75e-4 -0.03093 0-0.06273 0-0.09375 0-2.8626-1.6108-5.361-3.9688-6.625l-21.062-11.188c-0.01403-0.45577-0.08355-0.9053-0.15625-1.3438h0.0625l-4.7188-28.344h44.844c2.7614 0 5-2.2386 5-5s-2.2386-5-5-5h-55z" color="#000000" style="block-progression:tb;text-indent:0;text-transform:none"/>
   <path id="path4786-3" d="m32.481 907.36c6.9024 0 12.519-5.6165 12.519-12.519 0-6.9024-5.6165-12.481-12.519-12.481-6.9024 0-12.481 5.5787-12.481 12.481 0 6.9024 5.5787 12.519 12.481 12.519"/>
   <path id="path5182-7" d="m151.83 1001.8c6.2552-2.05 9.6323-8.7556 7.56-15.001l-4.5283 1.4561c1.228 3.7552-0.82508 7.7785-4.5475 9.0238l-119.21 40.559 1.535 4.5024 119.19-40.54z"/>
  </g>
  <path id="rect3786" d="m114.51 882.36h10.488l-64.512 75h-10.488z"/>
  <g id="g5004">
   <path id="path4991" transform="translate(0 872.36)" d="m35 40c-5.5228 0-10 4.4772-10 10 0 0.56748 0.06544 1.1146 0.15625 1.6562 1.592 9.928 3.3051 20.018 4.9688 30h0.03125c0.48617 2.918 2.2187 5.3939 4.6562 6.875l-0.03125 0.03125 0.4375 0.21875 28.719 15.312c0.77684 0.42201 1.6193 0.71894 2.5312 0.84375l8.625 36.062c0.46623 2.2784 2.49 4 4.9062 4 2.7614 0 5-2.2386 5-5 0-0.40041-0.036098-0.78306-0.125-1.1562l-9.875-41.25c3.75e-4 -0.030927 0-0.062734 0-0.09375 0-2.8626-1.6108-5.361-3.9688-6.625l-21.062-11.188c-0.01403-0.45577-0.083545-0.9053-0.15625-1.3438h0.0625l-4.7188-28.344h44.844c2.7614 0 5-2.2386 5-5s-2.2386-5-5-5h-55z" color="#000000" style="block-progression:tb;text-indent:0;text-transform:none"/>
   <path id="path4786" d="m32.481 907.36c6.9024 0 12.519-5.6165 12.519-12.519 0-6.9024-5.6165-12.481-12.519-12.481-6.9024 0-12.481 5.5787-12.481 12.481 0 6.9024 5.5787 12.519 12.481 12.519"/>
   <path id="path5182" d="m151.83 1001.8c6.2552-2.05 9.6323-8.7556 7.56-15.001l-4.5283 1.4561c1.228 3.7552-0.82508 7.7785-4.5475 9.0238l-119.21 40.559 1.535 4.5024 119.19-40.54z"/>
  </g>
 </g>
</svg>
